X:109
T:My favourite if I could get thee
T:'Stu mo luaidh na'm faighinn thu
R:Slow Air
S:Simon Fraser Collection
N:No.62
O:Scottish
M:3/4
L:1/8
Q:1/4=120
K:B_
F|B>B B3d|c>B A4|B>A G3F|F>E D4|B>B B3c|d>e f3g|f>e d3c|dB B3:|
F|B>B f3d|c>B A4|d>G G3F|B>F D4|B>B c3B|cd/f/ g3d|f>e d3c|dB B2 zF|
B>B f3d|c>B A4|d>G G3F|B>F D4|B>B c3B|cd/f/ g3 z/d/|f>e d3c|B3 A G||

